X:1
T: Ayr Races
C:John Gow
R:Jig
Q:180
K:D
M:6/8
L:1/16
A2|d4A2 A2F2A2|D2F2A2 A2F2D2|d4A2 A2F2D2|E2F2A2 B4A2|d4A2 A2F2A2|D2F2A2 A2F2D2|G2B2G2 F2A2F2|E2F2A2 B4A2|
d4A2 A2F2A2|D2F2A2 A2F2D2|d4A2 A2F2D2|E2F2A2 B4A2|d4A2 A2F2A2|D2F2A2 A2F2D2|G2B2G2 F2A2F2|E2F2A2 B4A2|
d4a2 a2f2d2|c4e2 e2c2A2|d4a2 a2f2d2|A2F2A2 B4A2|d4a2 a2f2d2|c4e2 e2c2A2|d4B2 A2F2D2|E2F2A2 B4c2|
d4a2 a2f2d2|c4e2 e2c2A2|d4a2 a2f2d2|A2F2A2 B4A2|d2f2a2 a2f2d2|c2d2e2 e2c2A2|B2c2d2 A2F2A2|D4D2 D4||
